!!!OTL: "Der boese Bruder" SCHOEN ADELHEID BEIM FEUER SASS
!!!ARE: Europa, Mitteleuropa, Deutschland, Franken
!!!SCT: Z1089
!!!YEM: Copyright 1995, estate of Helmut Schaffrath.
**kern
*ICvox
*Ivox
*M2/4
*k[b-e-a-d-]
*A-:
{8e-
=1
4a-
4b-
=2
8cc
8ee-
8dd-
8cc
=3
4b-
8r}
{8cc
=4
8dd-
8cc
8b-
8a-
=5
8g
8b-
8e-}
{8e-
=6
4a-
4b-
=7
8.cc
16dd-
8ee-
8dd-
=8
4cc
4b-
=9
4a-
8r}
{8cc
=10
8b-
8cc
8dd-
8ee-
=11
4dd-
4cc
=12
4b-
8r}
{8b-
=13
8cc
8dd-
8ee-
8ff
=14
4ee-
4dd-
=15
4cc
8r}
{8e-
=16
4a-
4b-
=17
8cc
8ee-
8dd-
8cc
=18
4b-
8r}
{8cc
=19
8dd-
8cc
8b-
8a-
=20
8g
8b-
8e-}
{8e-
=21
4a-
4b-
=22
8.cc
16dd-
8ee-
8dd-
=23
4cc
4b-
=24
4a-
8r}
==
!!!AGN: Romanze, Ballade, Tod
!!!ONB: ESAC (Essen Associative Code) Database: ZUCCAL
!!!AMT: simple duple
!!!AIN: vox
!!!EED: Helmut Schaffrath
!!!EEV: 1.0
*-
